X:186
T:Oh, Susannah
M:4/4
L:1/8
K:G
GA | B2 d2 d3 e | d2 B2 G3 A | B2 B2 A2 G2 | A6 GA |
B2 d2 d3 e | d2 B2 G3 A | B2 B2 A2 A2 |1 G4-G2 :|2 G4-G4 ||
c4 c4 | e2 e4 e2 | d2 d2 B2 G2 | A6 GA |
B2 d2 d3 e | d2 B2 G3 A | B2 B2 A2 A2 |1 G4-G4 :|2 G4-G2 ||
